X:1
T:Beautiful Eastertide
T:Beautiful Eastertide
T:Clinton Dudley Lowden
T:Edna Randolph Worrell, 1914
T:Public Domain Courtesy of the Cyber Hymnal™
T:Public Domain Courtesy of the Cyber Hymnal™
C:Clinton Dudley Lowden
Z:Public Domain
Z:Courtesy of the Cyber Hymnal™
%%score ( 1 2 ) ( 3 4 )
L:1/8
Q:1/4=95
M:4/4
K:Ab
V:1 treble 
V:2 treble 
V:3 bass 
V:4 bass 
V:1
 EFGA BA | [DG]2 [De] [De]3 | [DF]2 [Dd] [Dd]3 | [CE]2 [Cc] [Cc]3 | EFGA BA | %5
w: 1.~Look to the world, ’tis a|tem- ple fair,|Oh, so fair,|won- drous fair;|Bid- ding us all to en-|
w: 2.~Ev- er- y spot is a|ho- ly place,|Ho- ly place,|ho- ly place;|Where one may kneel and re-|
w: 3.~Al- tars of God! how they|speak of love,|Ten- der love,|per- fect love;|Rich gifts of beau- ty from|
 [EG]2 [EB] [EB]2 [EG] | [=DA][DG][DF] [DG]2 [DA] | ([DB]3 !fermata![DE]3) || %8
w: gage in prayer, This|beau- ti- ful Eas- ter-|tide. *|
w: ceive the grace Of|Christ, on this Eas- ter-|tide. *|
w: Christ a- bove, Who’s|ris- en this Eas- ter-|tide. *|
"^Refrain" [Ec]2 [Fc][Gc] [Ac][Gc] | [Fc]2 [Cc] [Cc]3 | [Ec][Fc][Gc] [Bc]2 [Ac] | [Gd]6 | %12
w: ||||
w: See the mea- dows in|green ar- rayed;|Beau- ti- ful Eas- ter-|tide!|
w: ||||
 [Ed]2 [Fd][Gd] [Ad][Gd] | [Fd]2 [Dd] [Dd]3 | [Dd][Ed][Fd] [Ad]2 [Gd] | [Ec]6 | %16
w: ||||
w: Dew, like dia- monds and|pearls dis- played,|Beau- ti- ful Eas- ter-|tide!|
w: ||||
 [Ec]2 [Fc][Gc] [Ac][Gc] | [Fc]2 [Cc] [Cc]3 | [Ec][Fc][Gc] [Ac]2 [Ac] | [Fd]6 | %20
w: ||||
w: Streams of sil- ver with|flow- ers strown,|Skies that are sap- phire|dyed,|
w: ||||
 [A=d]2 [Ad][Ad] [Gd][Ad] | [ce]2 [Ec] [Ec]2 [Ee] | =d2 [Ad] [ce]2 [B_d] | [Ac]6 |] %24
w: ||||
w: Speak the love that the|Christ has shown, This|beau- ti- ful Eas-|ter-|
w: ||||
V:2
 C3 E3 | x6 | x6 | x6 | C3 E3 | x6 | x6 | x6 || x6 | x6 | x6 | x6 | x6 | x6 | x6 | x6 | x6 | x6 | %18
 x6 | x6 | x6 | x6 | FG x4 | x6 |] %24
V:3
 [A,,E,]3 [C,A,]3 | [B,,E,]2 [E,G,] [E,G,]3 | [E,G,]2 [E,G,] [E,G,]3 | [A,,A,]2 [A,,A,] [A,,A,]3 | %4
 [A,,E,]3 [C,A,]3 | [B,,B,]2 [B,,G,] [B,,G,]2 [B,,B,] | CB,A, [B,,G,]2 [B,,F,] | [E,G,]6 || %8
 A,,2 [E,A,C] [E,A,C]2 [E,A,C] | A,,2 [E,A,] [E,A,]2 [E,A,] | A,,2 [E,A,C] [E,A,C]2 [E,A,C] | %11
 (B,,2 [E,G,D] [E,G,D]2 [E,G,D]) | E,,2 [E,G,B,D] [E,G,B,D]2 [E,G,B,D] | %13
 B,,2 [E,G,] [E,G,]2 [E,G,] | E,,2 [E,G,B,] [E,G,B,]2 [E,G,B,] | (A,,2 [E,A,] [E,A,]2 [E,A,]) | %16
 A,,2 [E,A,C] [E,A,C]2 [E,A,C] | A,,2 [E,A,] [E,A,]2 [E,A,] | A,,2 [E,A,C] [E,A,C]2 [E,A,C] | %19
 (D,,2 [F,A,D] [F,A,D]2 [F,A,D]) | B,,2 [A,B,=D] [A,B,D]2 [A,B,D] | E,,2 [E,A,C] [E,A,C]2 [E,A,C] | %22
 B,,2 [F,A,B,=D] E,,2 [E,G,_D] | (A,,2 [E,A,C] [A,CE]3) |] %24
V:4
 x6 | x6 | x6 | x6 | x6 | x6 | B,,3 x3 | x6 || x6 | x6 | x6 | x6 | x6 | x6 | x6 | x6 | x6 | x6 | %18
 x6 | x6 | x6 | x6 | x6 | x6 |] %24

